;FLAVOR:Marlin
;TIME:253
;Filament used: 0.138764m
;Layer height: 0.4
;MINX:-27.2
;MINY:-27.2
;MINZ:0.3
;MAXX:27.2
;MAXY:27.2
;MAXZ:0.3
;TARGET_MACHINE.NAME:Unknown
;Generated with Cura_SteamEngine 5.10.1
M140 S60
M105
M190 S60
M104 S200
M105
M109 S200
M201 X500.00 Y500.00 Z100.00 E5000.00 ;Setup machine max acceleration
M203 X500.00 Y500.00 Z10.00 E50.00 ;Setup machine max feedrate
M204 P500.00 R1000.00 T500.00 ;Setup Print/Retract/Travel acceleration
M205 X8.00 Y8.00 Z0.40 E5.00 ;Setup Jerk
M220 S100 ;Reset Feedrate
M221 S100 ;Reset Flowrate

G28 ;Home

G92 E0 ;Reset Extruder
;G1 Z2.0 F3000 ;Move Z Axis up
;start draw prime lines
G1 F2700 E0
G1 Z0.2 F3000 ;Move Z Axis down
G1 F1203 X-3.868 Y105.648 E0.15305
G1 X-8.468 Y105.347 E0.30599 F1500
G1 X-13.069 Y104.843 E0.45955 F1500
G1 X-17.439 Y104.173 E0.60623 F1500
G1 F1500 X-17.369 Y103.78 E0.6195 
G1 X-13.035 Y104.446 E0.76535 F1500
G1 X-8.455 Y104.947 E0.91859 F1500
G1 X-3.877 Y105.248 E1.07118 F1500
G1 X0.727 Y105.348 E1.22434 F1500
G1 X5.328 Y105.248 E1.37741 F1500
G1 X9.905 Y104.948 E1.52997 F1500
G1 F1500 X14.49 Y104.447 E1.68299 
G1 X19.023 Y103.75 E1.83515 F1500
G1 F1500 X23.539 Y102.848 E1.98832 
G1 X28.016 Y101.755 E2.1416 F1500
G1 X32.418 Y100.472 E2.2941 F1500
G1 X36.774 Y98.993 E2.44711 F1500
G1 X41.069 Y97.323 E2.60038 F1500
G1 X45.27 Y95.475 E2.75302 F1500
G1 F1500 X49.399 Y93.436 E2.90657 
G1 F1500 X53.432 Y91.227 E3.05951 
G1 F1500 X57.364 Y88.839 E3.21214 
G1 X61.175 Y86.294 E3.36418 F1500
G1 X64.886 Y83.573 E3.51685 F1500
G1 F1500 X68.474 Y80.693 E3.66987 
G1 X71.94 Y77.654 E3.82319 F1500
G1 F1500 X75.262 Y74.476 E3.97571 
G1 X78.432 Y71.162 E4.12786 F1500
G1 X81.474 Y67.696 E4.28086 F1500
G1 F1500 X84.353 Y64.11 E4.43382 
G1 X87.073 Y60.398 E4.58688 F1500
G1 F1500 X89.618 Y56.591 E4.7388 
G1 X92.011 Y52.648 E4.89183 F1500
G1 X94.216 Y48.624 E5.04406 F1500
G1 X96.259 Y44.489 E5.19708 F1500
G1 X98.103 Y40.293 E5.34914 F1500
G1 F1500 X99.775 Y35.993 E5.50259 
G1 X101.254 Y31.641 E5.65547 F1500
G1 X102.536 Y27.236 E5.80806 F1500
G1 F1500 X103.634 Y22.762 E5.9609 
G1 F1500 X104.531 Y18.247 E6.11323 
G1 X105.23 Y13.703 E6.26538 F1500
G1 F1500 X105.731 Y9.135 E6.41784 
G1 F1500 X106.03 Y4.557 E6.56967 
G1 F1500 X106.127 Y0.151 E6.71515 
G1 F1500 X106.524 Y0.151 E6.72829 
G1 X106.429 Y4.552 E6.87397 F1500
G1 F1500 X106.13 Y9.147 E7.02674 
G1 X105.627 Y13.737 E7.17993 F1500
G1 F1500 X104.924 Y18.31 E7.33305 
G1 X104.026 Y22.829 E7.48552 F1500
G1 F1500 X102.927 Y27.32 E7.63892 
G1 F1500 X101.64 Y31.744 E7.79216 
G1 X100.156 Y36.114 E7.94566 F1500
G1 X98.479 Y40.43 E8.09967 F1500
G1 F1500 X96.628 Y44.642 E8.25231 
G1 X94.58 Y48.792 E8.40584 F1500
G1 X92.364 Y52.831 E8.55869 F1500
G1 X89.969 Y56.785 E8.71206 F1500
G1 F1500 X87.405 Y60.617 E8.86541 
G1 X84.68 Y64.34 E9.01886 F1500
G1 X81.79 Y67.939 E9.17238 F1500
G1 F1500 X78.737 Y71.419 E9.32597 
G1 F1500 X75.555 Y74.746 E9.47833 
G1 X72.221 Y77.936 E9.63103 F1500
G1 F1500 X68.746 Y80.988 E9.78486 
G1 F1500 X65.145 Y83.878 E9.93881 
G1 F1500 X61.417 Y86.611 E10.09256 
G1 F1500 X57.592 Y89.167 E10.24518 
G1 X53.639 Y91.569 E10.39865 F1500
G1 F1500 X49.6 Y93.783 E10.55184 
G1 X45.453 Y95.83 E10.70566 F1500
G1 X41.237 Y97.685 E10.85886 F1500
G1 F1500 X36.924 Y99.362 E11.01239 
G1 F1500 X32.551 Y100.848 E11.166 
G1 F1500 X28.136 Y102.138 E11.31937 
G1 X23.641 Y103.235 E11.47365 F1500
G1 F1500 X19.108 Y104.14 E11.62739 
G1 F1500 X14.558 Y104.84 E11.78012 
G1 F1500 X9.962 Y105.344 E11.9339 
G1 F1500 X5.349 Y105.648 E12.08805 
G1 F1500 X0.744 Y105.748 E12.24125 
;end draw prime lines
G92 E0 ;Reset Extruder
G1 Z2.0 F3000 ;Move Z Axis up
;end Start g-code
M82 ;absolute extrusion mode
G92 E0
G92 E0
G1 F1500 E-6.5
;LAYER_COUNT:1
;LAYER:0
M107
G0 F1136.5 X-27.2 Y-20.022 Z0.3 
;TYPE:SKIRT
G1 F1500 E0
G1 F1500 X-26.778 Y-22.079 E0.0395 
G1 X-25.783 Y-23.85 E0.07771 F1500
G1 X-25.01 Y-24.848 E0.10146 F1500
G1 X-23.657 Y-25.94 E0.13416 F1500
G1 X-21.678 Y-26.926 E0.17575 F1500
G1 X-20.154 Y-27.148 E0.20472 F1500
G1 X20.022 Y-27.2 E0.96046 F1368.1
G1 X22.079 Y-26.778 E0.99996 F1500
G1 X23.85 Y-25.783 E1.03817 F1500
G1 X24.848 Y-25.01 E1.06191 F1500
G1 X25.94 Y-23.657 E1.09462 F1500
G1 X26.926 Y-21.678 E1.13621 F1500
G1 X27.148 Y-20.154 E1.16518 F1500
G1 X27.2 Y20.022 E1.92091 F1368.1
G1 X26.778 Y22.079 E1.96041 F1500
G1 X25.783 Y23.85 E1.99862 F1500
G1 X25.01 Y24.848 E2.02237 F1500
G1 X23.657 Y25.94 E2.05507 F1500
G1 X21.678 Y26.926 E2.09666 F1500
G1 X20.154 Y27.148 E2.12563 F1500
G1 X-20.117 Y27.2 E2.88315 F1368.1
G1 X-22.118 Y26.761 E2.92169 F1500
G1 X-23.904 Y25.761 E2.96019 F1500
G1 X-24.847 Y25.022 E2.98273 F1500
G1 X-25.928 Y23.676 E3.0152 F1500
G1 X-26.926 Y21.66 E3.05752 F1500
G1 X-27.148 Y20.154 E3.08615 F1500
G1 X-27.2 Y-20.022 E3.84189 F1368.1
G0 F1500 X-26.8 Y-19.981 
G1 F1500 X-26.398 Y-21.938 E3.87947 
G1 X-25.467 Y-23.605 E3.91538 F1500
G1 X-24.722 Y-24.567 E3.93827 F1500
G1 X-23.44 Y-25.601 E3.96925 F1500
G1 X-21.558 Y-26.539 E4.00881 F1500
G1 X-20.096 Y-26.752 E4.0366 F1500
G1 X19.981 Y-26.8 E4.79047 F1349.5
G1 X21.938 Y-26.398 E4.82805 F1500
G1 X23.605 Y-25.467 E4.86397 F1500
G1 X24.567 Y-24.722 E4.88685 F1500
G1 X25.601 Y-23.44 E4.91784 F1500
G1 X26.539 Y-21.558 E4.95739 F1500
G1 X26.752 Y-20.096 E4.98518 F1500
G1 X26.8 Y19.981 E5.73905 F1349.5
G1 X26.398 Y21.938 E5.77663 F1500
G1 X25.467 Y23.605 E5.81255 F1500
G1 X24.722 Y24.567 E5.83544 F1500
G1 X23.44 Y25.601 E5.86642 F1500
G1 X21.558 Y26.539 E5.90597 F1500
G1 X20.096 Y26.752 E5.93376 F1500
G1 X-20.072 Y26.8 E6.68935 F1349.5
G1 X-21.976 Y26.382 E6.72602 F1500
G1 X-23.657 Y25.446 E6.76221 F1500
G1 X-24.563 Y24.736 E6.78386 F1500
G1 X-25.592 Y23.455 E6.81477 F1500
G1 X-26.539 Y21.542 E6.85492 F1500
G1 X-26.752 Y20.096 E6.88241 F1500
G1 X-26.8 Y-19.981 E7.63628 F1349.5
G0 F1500 X-26.4 Y-19.939 
G1 F1500 X-26.018 Y-21.797 E7.67197 
G1 X-25.151 Y-23.36 E7.70559 F1500
G1 X-24.434 Y-24.286 E7.72762 F1500
G1 X-23.223 Y-25.262 E7.75687 F1500
G1 X-21.438 Y-26.152 E7.79439 F1500
G1 X-20.038 Y-26.356 E7.82101 F1500
G1 X19.939 Y-26.4 E8.573 F1331.0
G1 X21.797 Y-26.018 E8.60868 F1500
G1 X23.36 Y-25.151 E8.6423 F1500
G1 X24.286 Y-24.434 E8.66433 F1500
G1 X25.262 Y-23.223 E8.69358 F1500
G1 X26.152 Y-21.438 E8.7311 F1500
G1 X26.356 Y-20.038 E8.75772 F1500
G1 X26.4 Y19.939 E9.50971 F1331.0
G1 X26.018 Y21.797 E9.54539 F1500
G1 X25.151 Y23.36 E9.57901 F1500
G1 X24.434 Y24.286 E9.60104 F1500
G1 X23.223 Y25.262 E9.6303 F1500
G1 X21.438 Y26.152 E9.66781 F1500
G1 X20.038 Y26.356 E9.69443 F1500
G1 X-20.027 Y26.4 E10.44807 F1331.0
G1 X-21.833 Y26.003 E10.48286 F1500
G1 X-23.41 Y25.131 E10.51675 F1500
G1 X-24.279 Y24.45 E10.53752 F1500
G1 X-25.256 Y23.234 E10.56686 F1500
G1 X-26.152 Y21.424 E10.60485 F1500
G1 X-26.356 Y20.038 E10.63121 F1500
G1 X-26.4 Y-19.939 E11.3832 F1331.0
G0 F1500 X-26.0 Y-19.897 
G1 F1500 X-25.638 Y-21.657 E11.417 
G1 X-24.801 Y-23.166 E11.44945 F1500
G1 X-24.149 Y-24.002 E11.4694 F1500
G1 X-23.003 Y-24.925 E11.49708 F1500
G1 X-21.318 Y-25.765 E11.53249 F1500
G1 X-19.98 Y-25.96 E11.55793 F1500
G1 X19.897 Y-26.0 E12.30804 F1312.4
G1 X21.657 Y-25.638 E12.34184 F1500
G1 X23.166 Y-24.801 E12.37429 F1500
G1 X24.002 Y-24.149 E12.39424 F1500
G1 X24.925 Y-23.003 E12.42192 F1500
G1 X25.765 Y-21.318 E12.45733 F1500
G1 X25.96 Y-19.98 E12.48277 F1500
G1 X26.0 Y19.897 E13.23288 F1312.4
G1 X25.638 Y21.657 E13.26668 F1500
G1 X24.801 Y23.166 E13.29914 F1500
G1 X24.149 Y24.002 E13.31908 F1500
G1 X23.003 Y24.925 E13.34676 F1500
G1 X21.318 Y25.765 E13.38217 F1500
G1 X19.98 Y25.96 E13.40761 F1500
G1 X-19.982 Y26.0 E14.15932 F1312.4
G1 X-21.691 Y25.624 E14.19223 F1500
G1 X-23.163 Y24.816 E14.22382 F1500
G1 X-23.995 Y24.164 E14.2437 F1500
G1 X-24.917 Y23.017 E14.27138 F1500
G1 X-25.765 Y21.303 E14.30735 F1500
G1 X-25.96 Y19.98 E14.33251 F1500
G1 X-26.0 Y-19.897 E15.08262 F1312.4
G0 F1500 X-25.6 Y-19.855 
G1 F1500 X-25.258 Y-21.517 E15.11454 
G1 X-24.451 Y-22.972 E15.14583 F1500
G1 X-23.865 Y-23.717 E15.16366 F1500
G1 X-22.783 Y-24.588 E15.18979 F1500
G1 X-21.198 Y-25.378 E15.22311 F1500
G1 X-19.922 Y-25.564 E15.24736 F1500
G1 X19.855 Y-25.6 E15.99559 F1293.8
G1 X21.517 Y-25.258 E16.02751 F1500
G1 X22.972 Y-24.451 E16.0588 F1500
G1 X23.717 Y-23.865 E16.07663 F1500
G1 X24.588 Y-22.783 E16.10276 F1500
G1 X25.378 Y-21.198 E16.13608 F1500
G1 X25.564 Y-19.922 E16.16033 F1500
G1 X25.6 Y19.855 E16.90856 F1293.8
G1 X25.258 Y21.517 E16.94048 F1500
G1 X24.451 Y22.972 E16.97177 F1500
G1 X23.865 Y23.717 E16.9896 F1500
G1 X22.783 Y24.588 E17.01573 F1500
G1 X21.198 Y25.378 E17.04904 F1500
G1 X19.922 Y25.564 E17.0733 F1500
G1 X-19.937 Y25.6 E17.82307 F1293.8
G1 X-21.551 Y25.245 E17.85416 F1500
G1 X-22.916 Y24.501 E17.8834 F1500
G1 X-23.714 Y23.876 E17.90247 F1500
G1 X-24.579 Y22.799 E17.92845 F1500
G1 X-25.378 Y21.185 E17.96233 F1500
G1 X-25.564 Y19.922 E17.98634 F1500
G1 X-25.6 Y-19.855 E18.73457 F1293.8
G0 F1500 X-25.2 Y-19.813 
G1 F1500 X-24.878 Y-21.377 E18.76461 
G1 X-24.101 Y-22.778 E18.79474 F1500
G1 X-23.58 Y-23.432 E18.81047 F1500
G1 X-22.565 Y-24.249 E18.83498 F1500
G1 X-21.077 Y-24.991 E18.86626 F1500
G1 X-19.864 Y-25.168 E18.88932 F1500
G1 X19.813 Y-25.2 E19.63566 F1275.3
G1 X21.377 Y-24.878 E19.6657 F1500
G1 X22.778 Y-24.101 E19.69583 F1500
G1 X23.432 Y-23.58 E19.71156 F1500
G1 X24.249 Y-22.565 E19.73607 F1500
G1 X24.991 Y-21.077 E19.76735 F1500
G1 X25.168 Y-19.864 E19.79041 F1500
G1 X25.2 Y19.813 E20.53675 F1275.3
G1 X24.878 Y21.377 E20.56679 F1500
G1 X24.101 Y22.778 E20.59693 F1500
G1 X23.58 Y23.432 E20.61266 F1500
G1 X22.565 Y24.249 E20.63716 F1500
G1 X21.077 Y24.991 E20.66844 F1500
G1 X19.864 Y25.168 E20.6915 F1500
G1 X-19.892 Y25.2 E21.43933 F1275.3
G1 X-21.411 Y24.866 E21.46859 F1500
G1 X-22.669 Y24.186 E21.49549 F1500
G1 X-23.43 Y23.59 E21.51367 F1500
G1 X-24.243 Y22.578 E21.53809 F1500
G1 X-24.991 Y21.067 E21.5698 F1500
G1 X-25.168 Y19.864 E21.59268 F1500
G1 X-25.2 Y-19.813 E22.33902 F1275.3
G0 F1500 X-24.8 Y-19.771 
G1 F1500 X-24.498 Y-21.238 E22.3672 
G1 X-23.788 Y-22.529 E22.39491 F1500
G1 X-23.296 Y-23.146 E22.40976 F1500
G1 X-22.345 Y-23.912 E22.43273 F1500
G1 X-20.957 Y-24.604 E22.4619 F1500
G1 X-19.806 Y-24.772 E22.48378 F1500
G1 X19.771 Y-24.8 E23.22825 F1256.7
G1 X21.238 Y-24.498 E23.25642 F1500
G1 X22.529 Y-23.788 E23.28413 F1500
G1 X23.146 Y-23.296 E23.29898 F1500
G1 X23.912 Y-22.345 E23.32195 F1500
G1 X24.604 Y-20.957 E23.35112 F1500
G1 X24.772 Y-19.806 E23.373 F1500
G1 X24.8 Y19.771 E24.11747 F1256.7
G1 X24.498 Y21.238 E24.14564 F1500
G1 X23.788 Y22.529 E24.17336 F1500
G1 X23.296 Y23.146 E24.1882 F1500
G1 X22.345 Y23.912 E24.21117 F1500
G1 X20.957 Y24.604 E24.24035 F1500
G1 X19.806 Y24.772 E24.26223 F1500
G1 X-19.847 Y24.8 E25.00812 F1256.7
G1 X-21.27 Y24.487 E25.03553 F1500
G1 X-22.422 Y23.871 E25.0601 F1500
G1 X-23.146 Y23.304 E25.0774 F1500
G1 X-23.907 Y22.357 E25.10025 F1500
G1 X-24.604 Y20.949 E25.12981 F1500
G1 X-24.772 Y19.806 E25.15154 F1500
G1 X-24.8 Y-19.771 E25.896 F1256.7
G0 F1500 X-24.4 Y-19.729 
G1 F1500 X-24.118 Y-21.1 E25.92233 
G1 X-23.475 Y-22.28 E25.94761 F1500
G1 X-23.01 Y-22.863 E25.96164 F1500
G1 X-22.129 Y-23.573 E25.98292 F1500
G1 X-20.837 Y-24.217 E26.01008 F1500
G1 X-19.748 Y-24.376 E26.03078 F1500
G1 X19.729 Y-24.4 E26.77336 F1238.1
G1 X21.1 Y-24.118 E26.79969 F1500
G1 X22.28 Y-23.475 E26.82497 F1500
G1 X22.863 Y-23.01 E26.839 F1500
G1 X23.573 Y-22.129 E26.86028 F1500
G1 X24.217 Y-20.837 E26.88744 F1500
G1 X24.376 Y-19.748 E26.90814 F1500
G1 X24.4 Y19.729 E27.65072 F1238.1
G1 X24.118 Y21.1 E27.67705 F1500
G1 X23.475 Y22.28 E27.70233 F1500
G1 X23.01 Y22.863 E27.71636 F1500
G1 X22.129 Y23.573 E27.73764 F1500
G1 X20.837 Y24.217 E27.7648 F1500
G1 X19.748 Y24.376 E27.7855 F1500
G1 X-19.802 Y24.4 E28.52946 F1238.1
G1 X-21.13 Y24.108 E28.55503 F1500
G1 X-22.233 Y23.518 E28.57856 F1500
G1 X-22.861 Y23.019 E28.59365 F1500
G1 X-23.571 Y22.136 E28.61496 F1500
G1 X-24.217 Y20.831 E28.64236 F1500
G1 X-24.376 Y19.748 E28.66295 F1500
G1 X-24.4 Y-19.729 E29.40553 F1238.1
G0 F1500 X-24.0 Y-19.687 
G1 F1500 X-23.738 Y-20.962 E29.43001 
G1 X-23.162 Y-22.031 E29.45286 F1500
G1 X-22.726 Y-22.578 E29.46601 F1500
G1 X-21.909 Y-23.236 E29.48575 F1500
G1 X-20.717 Y-23.83 E29.5108 F1500
G1 X-19.69 Y-23.98 E29.53032 F1500
G1 X19.687 Y-24.0 E30.27103 F1219.5
G1 X20.962 Y-23.738 E30.29551 F1500
G1 X22.031 Y-23.162 E30.31835 F1500
G1 X22.578 Y-22.726 E30.33151 F1500
G1 X23.236 Y-21.909 E30.35124 F1500
G1 X23.83 Y-20.717 E30.37629 F1500
G1 X23.98 Y-19.69 E30.39582 F1500
G1 X24.0 Y19.687 E31.13652 F1219.5
G1 X23.738 Y20.962 E31.16101 F1500
G1 X23.162 Y22.031 E31.18385 F1500
G1 X22.726 Y22.578 E31.19701 F1500
G1 X21.909 Y23.236 E31.21674 F1500
G1 X20.717 Y23.83 E31.24179 F1500
G1 X19.69 Y23.98 E31.26131 F1500
G1 X-19.757 Y24.0 E32.00333 F1219.5
G1 X-20.99 Y23.729 E32.02708 F1500
G1 X-22.044 Y23.165 E32.04957 F1500
G1 X-22.575 Y22.736 E32.06241 F1500
G1 X-23.235 Y21.915 E32.08222 F1500
G1 X-23.83 Y20.713 E32.10745 F1500
G1 X-23.98 Y19.69 E32.1269 F1500
G1 X-24.0 Y-19.687 E32.8676 F1219.5
G0 F1500 X-23.6 Y-19.646 
G1 F1500 X-23.358 Y-20.824 E32.89023 
G1 X-22.81 Y-21.841 E32.91196 F1500
G1 X-22.444 Y-22.291 E32.92287 F1500
G1 X-21.689 Y-22.899 E32.9411 F1500
G1 X-20.597 Y-23.443 E32.96405 F1500
G1 X-19.632 Y-23.584 E32.9824 F1500
G1 X19.646 Y-23.6 E33.72124 F1201.0
G1 X20.824 Y-23.358 E33.74386 F1500
G1 X21.841 Y-22.81 E33.76559 F1500
G1 X22.291 Y-22.444 E33.7765 F1500
G1 X22.899 Y-21.689 E33.79474 F1500
G1 X23.443 Y-20.597 E33.81768 F1500
G1 X23.584 Y-19.632 E33.83603 F1500
G1 X23.6 Y19.646 E34.57487 F1201.0
G1 X23.358 Y20.824 E34.59749 F1500
G1 X22.81 Y21.841 E34.61922 F1500
G1 X22.444 Y22.291 E34.63013 F1500
G1 X21.689 Y22.899 E34.64837 F1500
G1 X20.597 Y23.443 E34.67132 F1500
G1 X19.632 Y23.584 E34.68966 F1500
G1 X-19.712 Y23.6 E35.42974 F1201.0
G1 X-20.85 Y23.35 E35.45166 F1500
G1 X-21.822 Y22.83 E35.4724 F1500
G1 X-22.289 Y22.452 E35.4837 F1500
G1 X-22.899 Y21.694 E35.502 F1500
G1 X-23.443 Y20.595 E35.52507 F1500
G1 X-23.584 Y19.632 E35.54338 F1500
G1 X-23.6 Y-19.646 E36.28222 F1201.0
G0 F1500 X-23.2 Y-19.605 
G1 F1500 X-22.978 Y-20.686 E36.30298 
G1 X-22.495 Y-21.594 E36.32232 F1500
G1 X-22.193 Y-21.979 E36.33153 F1500
G1 X-21.469 Y-22.562 E36.34901 F1500
G1 X-20.477 Y-23.056 E36.36986 F1500
G1 X-19.574 Y-23.188 E36.38702 F1500
G1 X19.605 Y-23.2 E37.124 F1182.4
G1 X20.686 Y-22.978 E37.14476 F1500
G1 X21.594 Y-22.495 E37.16411 F1500
G1 X21.979 Y-22.193 E37.17331 F1500
G1 X22.562 Y-21.469 E37.1908 F1500
G1 X23.056 Y-20.477 E37.21164 F1500
G1 X23.188 Y-19.574 E37.22881 F1500
G1 X23.2 Y19.605 E37.96579 F1182.4
G1 X22.978 Y20.686 E37.98655 F1500
G1 X22.495 Y21.594 E38.00589 F1500
G1 X22.193 Y21.979 E38.0151 F1500
G1 X21.469 Y22.562 E38.03258 F1500
G1 X20.477 Y23.056 E38.05343 F1500
G1 X19.574 Y23.188 E38.07059 F1500
G1 X-19.667 Y23.2 E38.80874 F1182.4
G1 X-20.71 Y22.971 E38.82883 F1500
G1 X-21.633 Y22.477 E38.84852 F1500
G1 X-22.002 Y22.17 E38.85755 F1500
G1 X-22.561 Y21.475 E38.87432 F1500
G1 X-23.056 Y20.476 E38.8953 F1500
G1 X-23.188 Y19.574 E38.91244 F1500
G1 X-23.2 Y-19.605 E39.64942 F1182.4
G0 F1500 X-22.8 Y-19.564 
G1 F1500 X-22.598 Y-20.55 E39.66836 
G1 X-22.174 Y-21.355 E39.68547 F1500
G1 X-21.942 Y-21.667 E39.69278 F1500
G1 X-21.249 Y-22.225 E39.70952 F1500
G1 X-20.357 Y-22.669 E39.72826 F1500
G1 X-19.516 Y-22.792 E39.74425 F1500
G1 X19.564 Y-22.8 E40.47937 F1163.8
G1 X20.55 Y-22.598 E40.4983 F1500
G1 X21.355 Y-22.174 E40.51541 F1500
G1 X21.667 Y-21.942 E40.52273 F1500
G1 X22.225 Y-21.249 E40.53946 F1500
G1 X22.669 Y-20.357 E40.55821 F1500
G1 X22.792 Y-19.516 E40.5742 F1500
G1 X22.8 Y19.564 E41.30931 F1163.8
G1 X22.598 Y20.55 E41.32824 F1500
G1 X22.174 Y21.355 E41.34536 F1500
G1 X21.942 Y21.667 E41.35267 F1500
G1 X21.249 Y22.225 E41.36941 F1500
G1 X20.357 Y22.669 E41.38815 F1500
G1 X19.516 Y22.792 E41.40414 F1500
G1 X-19.622 Y22.8 E42.14035 F1163.8
G1 X-20.57 Y22.592 E42.1586 F1500
G1 X-21.444 Y22.124 E42.17725 F1500
G1 X-21.69 Y21.919 E42.18328 F1500
G1 X-22.223 Y21.256 E42.19928 F1500
G1 X-22.669 Y20.357 E42.21816 F1500
G1 X-22.792 Y19.516 E42.23414 F1500
G1 X-22.8 Y-19.564 E42.96926 F1163.8
G0 F1486.6 X-22.4 Y-19.523 
