M201 X500.00 Y500.00 Z100.00 E5000.00 ;Setup machine max acceleration
M203 X500.00 Y500.00 Z10.00 E50.00 ;Setup machine max feedrate
M204 P500.00 R1000.00 T500.00 ;Setup Print/Retract/Travel acceleration
M205 X8.00 Y8.00 Z0.40 E5.00 ;Setup Jerk
M220 S100 ;Reset Feedrate
M221 S100 ;Reset Flowrate

G28 ;Home

G92 E0 ;Reset Extruder
;G1 Z2.0 F3000 ;Move Z Axis up
;start draw prime lines
G1 F2700 E0
G1 Z0.2 F3000 ;Move Z Axis down
G1 F1203 X-3.868 Y105.648 E0.15305
G1 X-8.468 Y105.347 E0.30599
G1 X-13.069 Y104.843 E0.45955
G1 X-17.439 Y104.173 E0.60623
G1 F1200 X-17.369 Y103.78 E0.6195
G1 X-13.035 Y104.446 E0.76535
G1 X-8.455 Y104.947 E0.91859
G1 X-3.877 Y105.248 E1.07118
G1 X0.727 Y105.348 E1.22434
G1 X5.328 Y105.248 E1.37741
G1 X9.905 Y104.948 E1.52997
G1 F1203 X14.49 Y104.447 E1.68299
G1 X19.023 Y103.75 E1.83515
G1 F1200 X23.539 Y102.848 E1.98832
G1 X28.016 Y101.755 E2.1416
G1 X32.418 Y100.472 E2.2941
G1 X36.774 Y98.993 E2.44711
G1 X41.069 Y97.323 E2.60038
G1 X45.27 Y95.475 E2.75302
G1 F1197 X49.399 Y93.436 E2.90657
G1 F1200 X53.432 Y91.227 E3.05951
G1 F1203 X57.364 Y88.839 E3.21214
G1 X61.175 Y86.294 E3.36418
G1 X64.886 Y83.573 E3.51685
G1 F1200 X68.474 Y80.693 E3.66987
G1 X71.94 Y77.654 E3.82319
G1 F1203 X75.262 Y74.476 E3.97571
G1 X78.432 Y71.162 E4.12786
G1 X81.474 Y67.696 E4.28086
G1 F1200 X84.353 Y64.11 E4.43382
G1 X87.073 Y60.398 E4.58688
G1 F1203 X89.618 Y56.591 E4.7388
G1 X92.011 Y52.648 E4.89183
G1 X94.216 Y48.624 E5.04406
G1 X96.259 Y44.489 E5.19708
G1 X98.103 Y40.293 E5.34914
G1 F1200 X99.775 Y35.993 E5.50259
G1 X101.254 Y31.641 E5.65547
G1 X102.536 Y27.236 E5.80806
G1 F1203 X103.634 Y22.762 E5.9609
G1 F1206 X104.531 Y18.247 E6.11323
G1 X105.23 Y13.703 E6.26538
G1 F1203 X105.731 Y9.135 E6.41784
G1 F1206 X106.03 Y4.557 E6.56967
G1 F1209.1 X106.127 Y0.151 E6.71515
G1 F1206 X106.524 Y0.151 E6.72829
G1 X106.429 Y4.552 E6.87397
G1 F1203 X106.13 Y9.147 E7.02674
G1 X105.627 Y13.737 E7.17993
G1 F1206 X104.924 Y18.31 E7.33305
G1 X104.026 Y22.829 E7.48552
G1 F1203 X102.927 Y27.32 E7.63892
G1 F1200 X101.64 Y31.744 E7.79216
G1 X100.156 Y36.114 E7.94566
G1 X98.479 Y40.43 E8.09967
G1 F1203 X96.628 Y44.642 E8.25231
G1 X94.58 Y48.792 E8.40584
G1 X92.364 Y52.831 E8.55869
G1 X89.969 Y56.785 E8.71206
G1 F1200 X87.405 Y60.617 E8.86541
G1 X84.68 Y64.34 E9.01886
G1 X81.79 Y67.939 E9.17238
G1 F1203 X78.737 Y71.419 E9.32597
G1 F1206 X75.555 Y74.746 E9.47833
G1 X72.221 Y77.936 E9.63103
G1 F1200 X68.746 Y80.988 E9.78486
G1 F1197 X65.145 Y83.878 E9.93881
G1 F1200 X61.417 Y86.611 E10.09256
G1 F1203 X57.592 Y89.167 E10.24518
G1 X53.639 Y91.569 E10.39865
G1 F1200 X49.6 Y93.783 E10.55184
G1 X45.453 Y95.83 E10.70566
G1 X41.237 Y97.685 E10.85886
G1 F1203 X36.924 Y99.362 E11.01239
G1 F1200 X32.551 Y100.848 E11.166
G1 F1197 X28.136 Y102.138 E11.31937
G1 X23.641 Y103.235 E11.47365
G1 F1200 X19.108 Y104.14 E11.62739
G1 F1203 X14.558 Y104.84 E11.78012
G1 F1200 X9.962 Y105.344 E11.9339
G1 F1197 X5.349 Y105.648 E12.08805
G1 F1200 X0.744 Y105.748 E12.24125
;end draw prime lines
G92 E0 ;Reset Extruder
G1 Z2.0 F3000 ;Move Z Axis up
;end Start g-code